X:23
T: French 5/4 Waltz
O: learned by ear from Gary Breitbard in the SF Bay Area and noted by Ruth Temple and Denise S. Ray, with the body-wise dancing steps of Lise M. Dyckman
M:5/4
L:1/4
K:G
D |G A B2 d | B G A2 B | G F E2  B | G F E2 D |
G A B2 d | B G A2 B | G F E2  B | G F E2 B || B B G2 B|
 d/c/ B  A2  c| B A G2 B | AG F2 D |  \
M:6/4
G2 A B2 A[Error: Irreparable invalid markup ('<g [...] |:a|gfe2a|cde2d/c/|>') in entry.  Owner must fix manually.  Raw contents below.]
